X:1
T:Title
%%score { ( 1 3 ) | ( 2 4 ) }
L:1/8
M:6/4
K:Ab
V:1 treble nm="Grand Piano"
V:3 treble 
V:2 bass 
V:4 bass 
V:1
 z6 z4[Q:1/4=117] [CE]2 | z6 .B6 | E6 C4 [CE]2 | z6 .A6 |[M:5/4] B2- B2- B6 |[M:1/4] B2 | %6
[M:6/4] B4 c2 d2 c2 B2 | e4 c2 [CEA]4 [A,E]2 | D2- [DB]2 [B,=DA]2 E2- [Ec]2 B2 | [CA]12 | %10
 c2 E2 A2 G6 | d2 E2 B2 [CEA]6 | .[Ec]2 d2 e2 e2 c2 [CA]2 | [=Dc]2 [DB]2 [DB]2 B6 | c2 E2 A2 G6 | %15
 d2 E2 B2 [CEA]6 | c2 d2 e2 F2 [=DB]2 [_DG]2 |[M:5/4] [CA]2- [CA]2- [CA]6 |] %18
V:2
 z6 z4 [A,,A,]2 | [A,,A,]4 [C,A,]2 [D,A,]4 [F,A,D]2 | [A,C]6 [A,,E,A,]4 [A,,A,]2 | %3
 [A,,E,]4 [A,,A,]2 [B,,F,]4 [B,,A,]2 |[M:5/4] [E,G,E]2- [E,G,E]2- [E,G,E]6 |[M:1/4] [E,G,E]2 | %6
[M:6/4] z6 .B,6 | .C6 z6 | z2 F,2 B,,2 z2 A,2 [E,G,D]2 | [A,,A,]12 | %10
 [A,E]2 [A,C]2 [A,CE]2 [E,B,E]6 | [G,B,E]2 [G,B,]2 [E,DE]2 A,,6 | %12
 A,2 [A,B,E]2 [A,CE]2 [A,CE]2 [A,E]2 [A,,A,]2 | [B,,F,]2 [B,,F,]2 [B,,A,]2 [E,G,E]6 | %14
 [A,E]2 [A,C]2 [A,CE]2 [E,B,E]6 | [G,B,E]2 [G,B,]2 [E,DE]2 A,,6 | %16
 [A,E]2 [A,B,E]2 [A,CE]2 [D,A,D]2 [B,,B,]2 [E,B,]2 |[M:5/4] [A,,A,]2- [A,,A,]2- [A,,A,]6 |] %18
V:3
 x12 | [Ec]4 [EA]2 F2- [FA]2 F2 | x12 | [CA]4 [CA]2 =D2- [DB]2 [Dc]2 |[M:5/4] x10 |[M:1/4] x2 | %6
[M:6/4] x12 | x12 | .[A,F]6 .[B,G]6 | x12 | x12 | x12 | x12 | x12 | x12 | x12 | x12 |[M:5/4] x10 |] %18
V:4
 x12 | x12 | x12 | x12 |[M:5/4] x10 |[M:1/4] x2 | %6
[M:6/4] [E,G,E]4 [E,A,E]2 [E,E]2- [E,A,E]2 [E,G,E]2 | [A,,E]4- [A,,A,E]2 A,,4 C,2 | .D,6 .E,6 | %9
 x12 | x12 | x12 | x12 | x12 | x12 | x12 | x12 |[M:5/4] x10 |] %18

